!!!!SEGMENT: pl-sa--18-a-i-18--002_barcicki-j-polonaisso-no-2.krn
!!!id: 18xx:333
!!!COM: Barcicki, Jan
!!!OTL: Polonaisso – No. 2
!!!PDT:
!!!SMS-siglum: PL-SA
!!!SMS-shelfmark: 18/A I 18
!!!NIFC-rismID: 1001065328
!!!URL-scan: http://bc.bdsandomierz.pl/dlibra/publication/1284/edition/1252/content
!!!ONB-nifc:
!!!SMS-variant:
!!!SMS-altvar:
**kern	**kern	**dynam
*part1	*part1	*part1
*staff2	*staff1	*
*I"Piano	*	*
*I'Pno.	*	*
*clefF4	*clefG2	*
*k[]	*k[]	*
*M3/4	*M3/4	*
=1	=1	=1
*^	*	*
*	*	*	*^
!	!	!LO:TX:a:t=No&colon; 2&colon;	!	!
8r	4ryy	(8.cc\L	.	.
8E 8C 8GG/	.	.	.	.
.	.	16gg\Jk)	.	.
!	!	!	!LO:DY:t=f&colon;	!LO:DY:rj
!	!	!	!LO:DY:b	!LO:DY:b=2
*2\right	*	*	*	*
*tremolo	*tremolo	*	*	*
8E 8C/L	8GG\L	(4.gg\	f	p
8E 8C/	8GG\	.	.	.
8E 8C/	8GG\	.	.	.
8E 8C/J	8GG\J	8ee\)	.	.
*Xtremolo	*Xtremolo	*	*	*
*	*	*	*v	*v
=2||	=2||	=2||	=2||
8r	4ryy	(16dd\LL	.
.	.	16cc\	.
8E 8C 8GG/	.	16b\	.
.	.	16cc\JJ)	.
*tremolo	*tremolo	*	*
8E 8C/L	8GG\L	(4.cc\	.
8E 8C/	8GG\	.	.
8E 8C/	8GG\	.	.
8E 8C/J	8GG\J	8g\)	.
*Xtremolo	*Xtremolo	*	*
*v	*v	*	*
=3	=3	=3
4F/	16a\LL	.
.	16cc#X\	.
.	16dd\	.
.	16cc#\JJ	.
4F 4FF/	16dd\LL	.
.	16ee 16cc#X\	.
.	16ff\	.
.	16eeJJ 16cc#\	.
4F 4FF/	16ffLL 16dd\	.
.	16gg#X 16ee\	.
.	16aa 16ff\	.
.	16gg#JJ 16ee\	.
=4	=4	=4
4F 4FF/	8aa\L	.
.	16gg#X\L	.
.	16aa\JJ	.
8r	(32ee\KLL	.
.	16.ff\)	.
!LO:TX:a:t=P:problem:mixed beam	!	!
8F#X\L	(32cc#X\K	.
.	16.dd\JJ)	.
.	8qccn/	.
8G\	4b\	.
8GG/J	.	.
!!LO:LB:g=original
=5	=5	=5
*	*^	*
!	!	!	!LO:DY:t=for
!	!	!	!LO:DY:b
16C/LL	8ccL 8e/	2ryy	f
16GG/	.	.	.
16BB/	8ddJ 8g/	.	.
16GG/JJ	.	.	.
16C/LL	4ee 4cc 4g/	.	.
16GG/	.	.	.
16BB/	.	.	.
16GG/JJ	.	.	.
16BB/LL	(8.ff/L	8.dd\L	p
16GG/	.	.	.
16C/	.	.	.
16GG/JJ	16ee/Jk)	16cc\Jk	.
=6	=6	=6	=6
!	!	!	!LO:DY:t=for
16BB/LL	8ddL 8g/	4ryy	f
16GG/	.	.	.
16C/	8eeJ 8cc/	.	.
16GG/JJ	.	.	.
16D/LL	4ff/	4dd\	.
16GG/	.	.	.
16BB/	.	.	.
16GG/JJ	.	.	.
16C/LL	(8.ggL 8.ee\	4ryy	.
16GG/	.	.	.
16D/	.	.	.
16GG/JJ	16ffJk 16dd\)	.	.
*	*v	*v	*
=7	=7	=7
4C/	(8.eeL 8.cc\	.
.	16ffJk 16dd\)	.
4E 4EE/	8gg\L	.
.	8bb-X\J	.
8r	16gg#X\LL	.
.	16aa\	.
8F\	16ff\	.
.	16dd\JJ	.
=8	=8	=8
4G\	16cc\LL	.
.	16b\	.
.	16ee\	.
.	16dd\JJ	.
.	8qqdd/	.
*	*2\right	*
8c\L	2cc\	.
8G\J	.	.
4C/	.	.
=9||	=9||	=9||
4GG/	8.gg\L	p
.	16bb\Jk	.
4G\	(4.bb 4.dd\	.
4D\	.	.
.	8aa\)	.
!!LO:LB:g=original
=10	=10	=10
!	!	!LO:DY:rj
!	!	!LO:DY:t=for
16G\LL	8gg\L	f
16d\	.	.
16B\	8dd\J	.
16d\JJ	.	.
*rep	*	*
16G\LL	8ee\L	.
16d\	.	.
16B\	(8ff#X\J	.
16d\JJ	.	.
*Xrep	*	*
*rep	*	*
16G\LL	16gg\LL	.
16d\	16bb\J)	.
16B\	8bbt\J	.
16d\JJ	.	.
*Xrep	*	*
=11	=11	=11
8r	8aa\L	.
!	!	!LO:DY:t=pia
8A 8F#X 8D\	8dd\J	p
.	8qqdd/	.
*tremolo	*	*
8A 8F# 8D\L	(4.ccc 4.dd\	.
8A 8F# 8D\	.	.
8A 8F# 8D\	.	.
8A 8F# 8D\J	8bb\)	.
*Xtremolo	*	*
=12	=12	=12
8r	8aa\L	.
8A 8F#X 8D\	8dd\J	.
*tremolo	*	*
8A 8F# 8D\L	8ff#X\L	.
8A 8F# 8D\	8gg\J	.
8A 8F# 8D\	(16aa\LL	.
.	16ccc\J)	.
8A 8F# 8D\J	8cccT\J	.
*Xtremolo	*	*
=13	=13	=13
*	*^	*
8G\L	4bb 4dd\	4ryy	.
8D\	.	.	.
8F#X\	4.ccc/	2dd\	.
8D\	.	.	.
8F#\	.	.	.
*	*Xtuplet	*	*
8A\J	24aa/LL	.	.
.	24ddd/	.	.
.	24ccc/JJ	.	.
=14	=14	=14	=14
!	!	!LO:TX:b:t=P:problem:w źródle2.dd znaduje się w środku taktu, pod 4.ccc	!
8G\L	8bb/L	2.dd\	.
8D\	8bbt/J	.	.
8F\	4.ccc/	.	.
8D\	.	.	.
8F\	.	.	.
8A\J	24aa/LL	.	.
.	24ddd/	.	.
.	24ccc/JJ	.	.
*	*v	*v	*
!!LO:LB:g=original
=15	=15	=15
4G\	(8.bb\L	.
.	16ddd\Jk)	.
4E/	(8.gg\L	.
.	16bb\Jk)	.
4C/	(8.ee\L	.
.	16gg\Jk)	.
=16	=16	=16
8r	16cc/LL	.
.	16ee/	.
8c\L	16a/	.
.	16cc/JJ	.
8A\	16f#X/LL	.
.	16a/	.
8F#X\J	16d/	.
.	16f#/JJ	.
4G\	16g/LL	.
.	16fn/	.
.	16d/	.
.	16B/JJ	.
=17	=17	=17
*^	*	*
8E/L	4C\	8c/	.
8G/J	.	8r	.
*tremolo	*	*	*
8E 8C\L	2ryy	(4.gg\	p
8G\	.	.	.
8E 8C\	.	.	.
8G\J	.	8ee\)	.
*Xtremolo	*	*	*
*v	*v	*	*
!!LO:LB:g=original
=18||	=18||	=18||
*clefG2	*	*
*k[b-]	*k[b-]	*
*F:	*F:	*
!	!LO:TX:t=P:problem:w źródle "Trio" zapisane pomiędzy dwoma pięcioliniami, przed taktem 18	!
!	!LO:TX:a:t=Trio	!
8r	16cc\LL	.
.	16ff\J	.
8a 8f 8c/	8.ff\J	.
*tremolo	*	*
8a 8f 8c/L	.	.
.	16gg\LL	.
8a 8f 8c/	16aa\	.
.	16bb-\JJ	.
8a 8f 8c/	16ccc\LL	.
.	16ddd\	.
8a 8f 8c/J	16ccc\	.
.	16bbn\JJ	.
*Xtremolo	*	*
=19	=19	=19
8r	8ccc\L	.
8a 8f 8c/	8cccT\J	.
*tremolo	*	*
8a 8f 8c/L	(4.aa\	.
8a 8f 8c/	.	.
8a 8f 8c/	.	.
8a 8f 8c/J	8ff\)	.
*Xtremolo	*	*
=20||	=20||	=20||
4g 4e 4c/	16bb-\LL	.
.	16ff#X\JJ	.
.	4gg\	.
4g 4e 4c/	.	.
.	16aa\LL	.
.	16gg\JJ	.
4g 4e 4c/	16ffn\LL	.
.	16ee\	.
.	16dd\	.
.	16cc\JJ	.
!!LO:LB:g=original
=21	=21	=21
4a 4f 4c/	(8.ff\L	.
.	16aa\Jk)	.
4a 4f 4c/	8ff'\L	.
.	8aa'\J	.
4a 4f 4c/	(8.aa\L	.
.	16ccc\Jk)	.
=22	=22	=22
4g 4e 4c/	16ccc'\LL	.
.	16bb-'\JJ	.
!	!	!LO:DY:t=f&colon;
.	4bb-X\	f
4g 4e 4c/	.	.
.	(16gg\LL	.
.	16aa\JJ)	.
4g 4e 4c/	(16ff\LL	.
.	16ee\	.
.	16dd\	.
.	16cc\JJ)	.
=23	=23	=23
*clefF4	*	*
8r	16dd\LL	.
.	16ff\	.
!LO:TX:a:t=P:problem:mixed beam	!	!
8B-\L	16ee\	.
.	16gg\JJ	.
.	8qqgg/	.
8c\	2ff\	.
8C/J	.	.
4F\	.	.
=24||	=24||	=24||
*tremolo	*	*
8CC/L	16cc\LL	.
.	16bn\	.
8C/	16cc\	.
.	(16b\JJ	.
8CC/	16cc\LL	.
.	16dd\J)	.
8C/	8ddT\J	.
8CC/	4ee\	.
8C/J	.	.
*Xtremolo	*	*
=25	=25	=25
*tremolo	*	*
8CC/L	(16eeLL 16cc\	.
.	16dd\	.
8C/	16ee\	.
.	16dd\JJ)	.
8CC/	(16ee\LL	.
.	16ff\J)	.
8C/	8ffT\J	.
8CC/	4gg\	.
8C/J	.	.
*Xtremolo	*	*
!!LO:LB:g=original
=26	=26	=26
8CC/L	(16gg\LL	.
.	16ff#X\	.
8C/J	16gg\	.
.	16ff#\JJ)	.
4CC/	(16gg\LL	.
.	16aa\J)	.
.	8aat\J	.
4r	(8.bb-L 8.gg\	.
.	16aaJk 16ff#\)	.
=27	=27	=27
8.e\L	(8.gg\L	.
16d\Jk	16ff\Jk)	.
8c\L	8ee'\L	.
8B-X\	8dd'\J	.
8A\	(8.cc\L	.
8G\J	.	.
.	32dd\LL	.
.	32ee\JJJ)	.
=28	=28	=28
*clefG2	*	*
.	16qqee/LL	.
.	16qqgg/JJ	.
8r	8ff\L	.
8a 8f 8c/	8.ff\J	.
*tremolo	*	*
8a 8f 8c/L	.	.
.	16gg\LL	.
8a 8f 8c/	16aa\	.
.	16bb-\JJ	.
8a 8f 8c/	16ccc\LL	.
.	16ddd\	.
8a 8f 8c/J	16ccc\	.
.	16bbn\JJ	.
*Xtremolo	*	*
=29	=29	=29
8r	8ccc'\L	.
8a 8f 8c/	8cccT\J	.
*tremolo	*	*
8a 8f 8c/L	(4.aa\	.
8a 8f 8c/	.	.
8a 8f 8c/	.	.
8a 8f 8c/J	8ff\)	.
*Xtremolo	*	*
==	==	==
*-	*-	*-
!!!system-decoration: {(s1,s2)}
!!!ENC:Andrzej Borzym
!!!END:2020-06-02
!!!EED: Antoni Szymański
!!!EST: 2020-10-04
